Papirus-Light/16x16/panel/network-wired-acquiring.svg

<svg width="16" height="16" version="1.1" xmlns="http://www.w3.org/2000/svg">
 <defs>
  <style id="current-color-scheme" type="text/css">.ColorScheme-Text { color:#444444; } .ColorScheme-Highlight { color:#4285f4; } .ColorScheme-NeutralText { color:#ff9800; } .ColorScheme-PositiveText { color:#4caf50; } .ColorScheme-NegativeText { color:#f44336; }</style>
 </defs>
 <path class="ColorScheme-Text" d="m1 1s-1 0-1 1v3h2v-2h1v2h1v-2h1v2h1v-2h1v2h1v-2h1v2h1v-2h1v2h1v-2h1v2h2v-3c0-1-1-1-1-1zm-1 9v2c0 1 1 1 1 1h2l1 1h7l1-1h2s1 0.13 1-1v-2h-2v1h-2l-1 1h-5l-1-1h-2v-1z" style="fill:currentColor;opacity:.35"/>
 <path class="ColorScheme-Text" d="M 2.5,6 A 1.5,1.5 0 0 0 1,7.5 1.5,1.5 0 0 0 2.5,9 1.5,1.5 0 0 0 4,7.5 1.5,1.5 0 0 0 2.5,6 Z m 5,0 A 1.5,1.5 0 0 0 6,7.5 1.5,1.5 0 0 0 7.5,9 1.5,1.5 0 0 0 9,7.5 1.5,1.5 0 0 0 7.5,6 Z m 5,0 A 1.5,1.5 0 0 0 11,7.5 1.5,1.5 0 0 0 12.5,9 1.5,1.5 0 0 0 14,7.5 1.5,1.5 0 0 0 12.5,6 Z" style="fill:currentColor"/>
</svg>

<svg xmlns="http://www.w3.org/2000/svg" width="16" height="16" version="1.1">
 <defs>
  <style id="current-color-scheme" type="text/css">
   .ColorScheme-Text { color:#444444; } .ColorScheme-Highlight { color:#4285f4; } .ColorScheme-NeutralText { color:#ff9800; } .ColorScheme-PositiveText { color:#4caf50; } .ColorScheme-NegativeText { color:#f44336; }
  </style>
 </defs>
 <path style="opacity:0.35;fill:currentColor" class="ColorScheme-Text" d="M 1,1 C 1,1 0,1 0,2 V 5 H 2 V 3 H 3 V 5 H 4 V 3 H 5 V 5 H 6 V 3 H 7 V 5 H 8 V 3 h 1 v 2 h 1 V 3 h 1 v 2 h 1 V 3 h 1 v 2 h 2 V 2 C 15,1 14,1 14,1 Z m -1,9 v 2 c 0,1 1,1 1,1 h 2 l 1,1 h 7 l 1,-1 h 2 c 0,0 1,0.13 1,-1 v -2 h -2 v 1 h -2 l -1,1 H 5 L 4,11 H 2 v -1 z"/>
 <path style="fill:currentColor" class="ColorScheme-Text" d="M 2.5,6 A 1.5,1.5 0 0 0 1,7.5 1.5,1.5 0 0 0 2.5,9 1.5,1.5 0 0 0 4,7.5 1.5,1.5 0 0 0 2.5,6 Z m 5,0 A 1.5,1.5 0 0 0 6,7.5 1.5,1.5 0 0 0 7.5,9 1.5,1.5 0 0 0 9,7.5 1.5,1.5 0 0 0 7.5,6 Z m 5,0 A 1.5,1.5 0 0 0 11,7.5 1.5,1.5 0 0 0 12.5,9 1.5,1.5 0 0 0 14,7.5 1.5,1.5 0 0 0 12.5,6 Z"/>
</svg>
